src/images/logo_ver.svg

<?xml version="1.0" encoding="UTF-8"?>
<!-- Generated by Pixelmator Pro 3.7.1 -->
<svg width="500" height="500" viewBox="0 0 500 500" xmlns="http://www.w3.org/2000/svg">
    <g id="Group">
        <path id="Path" fill="#0b2e4d" stroke="#aaaaaa" stroke-width="0.680691" d="M 265.409576 214.94812 L 265.409576 214.94812"/>
    </g>
    <path id="path1" fill="#e69b70" stroke="none" d="M 265.399994 256.700012 L 265.399994 256.700012 M 195.800003 83.899994 L 194.5 83.899994 C 185.199997 83.700012 176.199997 88.5 171.600006 96.399994 L 171.399994 96.399994 L 148.5 136.5 L 143 136.5 L 143 127.899994 C 143 127.899994 143.199997 123.299988 140.300003 123.700012 C 139.800003 123.700012 139 123.700012 138.800003 123.899994 C 134.399994 125 126.699997 127.200012 126.699997 127.200012 C 124.900002 128.100006 123.400002 129.799988 123.599998 131.799988 L 123.599998 137.799988 C 123.599998 137.799988 123.400002 139.600006 127.599998 140.200012 L 145.600006 140.200012 C 145.600006 140.399994 130.399994 156.100006 130.399994 156.100006 C 130.399994 156.100006 124.5 160.899994 126.400002 180.5 C 127.900002 200.100006 130.199997 248.100006 130.199997 248.100006 C 130.199997 248.100006 130 256.200012 135.300003 256.5 L 141.199997 256.5 L 141.399994 256.700012 L 142.699997 256.700012 L 142.899994 256.5 L 176.300003 256.5 C 176.300003 256.700012 176.5 256.700012 176.800003 256.700012 C 178.600006 256.5 180.300003 255.399994 181.399994 254.300003 C 182.899994 252.699997 182.699997 243.299988 182.699997 243.299988 C 182.699997 243.299988 182.699997 242 186.5 242 L 314.600006 242 C 318.399994 242 318.399994 243.299988 318.399994 243.299988 C 318.399994 243.299988 317.899994 252.5 319.700012 254.300003 C 321 255.600006 322.399994 256.100006 324.299988 256.700012 C 324.5 256.700012 324.799988 256.700012 324.799988 256.5 L 358.299988 256.5 L 358.799988 256.700012 L 360.100006 256.700012 L 360.299988 256.5 L 365.799988 256.5 C 371.299988 256.299988 370.899994 248.100006 370.899994 248.100006 C 370.899994 248.100006 372.899994 199.899994 374.700012 180.5 C 376.200012 160.899994 370.899994 156.100006 370.899994 156.100006 C 370.899994 156.100006 355.799988 140.100006 355.799988 139.799988 L 373.600006 139.799988 C 378.200012 139.600006 377.600006 137.399994 377.600006 137.399994 L 377.600006 131.399994 C 377.799988 129.600006 376.299988 127.600006 374.5 126.799988 C 374.5 126.799988 366.799988 125 362.600006 123.5 C 362.100006 123.299988 361.5 123.299988 361.299988 123.299988 C 358 123.100006 358.600006 127.5 358.600006 127.5 L 358.600006 136.100006 L 352.700012 136.100006 L 329.600006 96 L 329.600006 96 C 325 88.100006 315.899994 83.399994 306.5 83.5 L 305.200012 83.5 C 290.5 84 274.799988 84.399994 259 84.399994 L 242 84.399994 C 226.399994 84.799988 210.600006 84.399994 195.800003 83.899994 L 195.800003 83.899994 Z M 218.5 219.100006 C 215.399994 219.100006 213 216.899994 213 214.200012 L 213 214.200012 L 213 214.200012 C 213 211.299988 215.600006 208.899994 218.5 208.899994 L 283.799988 208.899994 C 286.899994 208.899994 289.100006 211.299988 289.100006 214.200012 L 289.100006 214.200012 C 289.100006 217.100006 286.5 219.5 283.600006 219.5 L 283.600006 219.5 L 218.5 219.100006 L 218.5 219.100006 Z M 208.300003 196.399994 C 204.800003 196.399994 203.5 193.100006 201.899994 190 L 193.100006 173.5 C 191.300003 170.399994 196.199997 167.100006 199.5 167.100006 L 301.799988 167.100006 C 305.299988 167.299988 309.899994 170.399994 308.200012 173.5 L 299.399994 190 C 297.899994 193.100006 296.299988 196.399994 293 196.399994 L 208.300003 196.399994 Z M 314.399994 183.700012 C 315.5 179.700012 316.399994 174.200012 319.200012 172.5 C 323 168.5 336.799988 164.100006 346.700012 164.100006 L 348 164.100006 C 355.299988 164.299988 370.200012 171.799988 361.700012 179.299988 C 359.100006 181.700012 355.799988 183.100006 352.5 183.899994 L 314.399994 183.700012 Z M 251.100006 242 L 251.100006 242 M 150.800003 188.700012 C 147.5 188 144.199997 186.5 141.600006 184.100006 C 133.199997 176.600006 148 169.100006 155.300003 168.899994 L 156.600006 168.899994 C 166.5 168.899994 180.199997 173.299988 184.100006 177.299988 C 186.800003 178.899994 187.800003 184.399994 188.899994 188.5 L 150.800003 188.700012 Z"/>
    <g id="g1">
        <path id="path2" fill="#e6b9a0" stroke="none" d="M 369.399994 283.700012 L 412 283.700012 L 412 376.299988 L 478.5 376.299988 L 478.5 406.600006 L 369.399994 406.600006 L 369.399994 283.700012 Z"/>
        <path id="path3" fill="#eab191" stroke="none" d="M 325.600006 359.700012 L 310.399994 315.5 L 295.299988 359.700012 L 325.600006 359.700012 Z M 334.399994 386.299988 L 286 386.299988 L 279.299988 406.600006 L 235.800003 406.600006 L 287.600006 283.700012 L 334.100006 283.700012 L 385.899994 406.600006 L 341.299988 406.600006 L 334.399994 386.299988 Z"/>
        <path id="path4" fill="#e8a884" stroke="none" d="M 133.100006 283.700012 L 247.300003 283.700012 L 247.300003 309.899994 L 175.800003 309.899994 L 175.800003 329.399994 L 242.100006 329.399994 L 242.100006 354.5 L 175.800003 354.5 L 175.800003 378.700012 L 249.300003 378.700012 L 249.300003 406.5 L 133.100006 406.5 L 133.100006 283.700012 Z"/>
        <path id="path5" fill="#e6a179" stroke="none" d="M 21.5 283.700012 L 84.800003 283.700012 C 97.300003 283.700012 107.400002 285.200012 115 288.200012 C 122.699997 291.200012 129 295.5 134 301.200012 C 139 306.799988 142.699997 313.399994 144.899994 320.899994 C 147.199997 328.399994 148.300003 336.299988 148.300003 344.700012 C 148.300003 357.799988 146.600006 368 143.300003 375.299988 C 139.899994 382.5 135.300003 388.600006 129.300003 393.5 C 123.300003 398.399994 116.900002 401.600006 110.099998 403.299988 C 100.800003 405.5 92.300003 406.700012 84.699997 406.700012 L 21.5 406.700012 L 21.5 283.700012 Z M 64.099998 311.5 L 64.099998 378.600006 L 74.5 378.600006 C 83.400002 378.600006 89.699997 377.700012 93.5 376 C 97.300003 374.299988 100.199997 371.200012 102.300003 366.799988 C 104.400002 362.399994 105.5 355.299988 105.5 345.5 C 105.5 332.5 103.099998 323.600006 98.400002 318.799988 C 93.599998 314 85.699997 311.600006 74.699997 311.600006 L 64.099998 311.5 L 64.099998 311.5 Z"/>
    </g>
</svg>

<?xml version="1.0" encoding="utf-8"?>
<!-- Generator: Adobe Illustrator 26.2.1, SVG Export Plug-In . SVG Version: 6.00 Build 0)  -->
<svg version="1.1" id="master-artboard" xmlns="http://www.w3.org/2000/svg" xmlns:xlink="http://www.w3.org/1999/xlink" x="0px"
	 y="0px" viewBox="0 0 500 500" style="enable-background:new 0 0 500 500;" xml:space="preserve">
<style type="text/css">
	.st0{fill:#0B2E4D;stroke:#AAAAAA;stroke-width:0.7494;stroke-miterlimit:2.9976;}
	.st1{fill:#CCCCCC;}
	.st2{fill:#999999;}
	.st3{fill:#666666;}
	.st4{fill:#333333;}
</style>
<g transform="matrix(0.9083147057845192, 0, 0, 0.9083147057845192, 0.000009809222319745459, 194.05687860360402)">
	<path class="st0" d="M221.3,125.9"/>
	<path class="st0" d="M329.1,116.4"/>
	<path class="st0" d="M292.2,23L292.2,23"/>
</g>
<path d="M265.4,256.7L265.4,256.7 M195.8,83.9h-1.3c-9.3-0.2-18.3,4.6-22.9,12.5h-0.2l-22.9,40.1H143v-8.6c0,0,0.2-4.6-2.7-4.2
	c-0.5,0-1.3,0-1.5,0.2c-4.4,1.1-12.1,3.3-12.1,3.3c-1.8,0.9-3.3,2.6-3.1,4.6v6c0,0-0.2,1.8,4,2.4h18c0,0.2-15.2,15.9-15.2,15.9
	s-5.9,4.8-4,24.4c1.5,19.6,3.8,67.6,3.8,67.6s-0.2,8.1,5.1,8.4h5.9l0.2,0.2h1.3l0.2-0.2h33.4c0,0.2,0.2,0.2,0.5,0.2
	c1.8-0.2,3.5-1.3,4.6-2.4c1.5-1.6,1.3-11,1.3-11s0-1.3,3.8-1.3h128.1c3.8,0,3.8,1.3,3.8,1.3s-0.5,9.2,1.3,11
	c1.3,1.3,2.7,1.8,4.6,2.4c0.2,0,0.5,0,0.5-0.2h33.5l0.5,0.2h1.3l0.2-0.2h5.5c5.5-0.2,5.1-8.4,5.1-8.4s2-48.2,3.8-67.6
	c1.5-19.6-3.8-24.4-3.8-24.4s-15.1-16-15.1-16.3h17.8c4.6-0.2,4-2.4,4-2.4v-6c0.2-1.8-1.3-3.8-3.1-4.6c0,0-7.7-1.8-11.9-3.3
	c-0.5-0.2-1.1-0.2-1.3-0.2c-3.3-0.2-2.7,4.2-2.7,4.2v8.6h-5.9L329.6,96l0,0c-4.6-7.9-13.7-12.6-23.1-12.5h-1.3
	c-14.7,0.5-30.4,0.9-46.2,0.9h-17C226.4,84.8,210.6,84.4,195.8,83.9L195.8,83.9z M218.5,219.1c-3.1,0-5.5-2.2-5.5-4.9l0,0l0,0
	c0-2.9,2.6-5.3,5.5-5.3h65.3c3.1,0,5.3,2.4,5.3,5.3l0,0c0,2.9-2.6,5.3-5.5,5.3l0,0L218.5,219.1L218.5,219.1z M208.3,196.4
	c-3.5,0-4.8-3.3-6.4-6.4l-8.8-16.5c-1.8-3.1,3.1-6.4,6.4-6.4h102.3c3.5,0.2,8.1,3.3,6.4,6.4l-8.8,16.5c-1.5,3.1-3.1,6.4-6.4,6.4
	H208.3z M314.4,183.7c1.1-4,2-9.5,4.8-11.2c3.8-4,17.6-8.4,27.5-8.4h1.3c7.3,0.2,22.2,7.7,13.7,15.2c-2.6,2.4-5.9,3.8-9.2,4.6
	L314.4,183.7z M251.1,242L251.1,242 M150.8,188.7c-3.3-0.7-6.6-2.2-9.2-4.6c-8.4-7.5,6.4-15,13.7-15.2h1.3c9.9,0,23.6,4.4,27.5,8.4
	c2.7,1.6,3.7,7.1,4.8,11.2L150.8,188.7z"/>
<g>
	<path class="st1" d="M369.4,283.7H412v92.6h66.5v30.3H369.4V283.7z"/>
	<path class="st2" d="M325.6,359.7l-15.2-44.2l-15.1,44.2H325.6z M334.4,386.3H286l-6.7,20.3h-43.5l51.8-122.9h46.5l51.8,122.9
		h-44.6L334.4,386.3z"/>
	<path class="st3" d="M133.1,283.7h114.2v26.2h-71.5v19.5h66.3v25.1h-66.3v24.2h73.5v27.8H133.1V283.7z"/>
	<path class="st4" d="M21.5,283.7h63.3c12.5,0,22.6,1.5,30.2,4.5c7.7,3,14,7.3,19,13c5,5.6,8.7,12.2,10.9,19.7
		c2.3,7.5,3.4,15.4,3.4,23.8c0,13.1-1.7,23.3-5,30.6c-3.4,7.2-8,13.3-14,18.2c-6,4.9-12.4,8.1-19.2,9.8c-9.3,2.2-17.8,3.4-25.4,3.4
		H21.5V283.7z M64.1,311.5v67.1h10.4c8.9,0,15.2-0.9,19-2.6s6.7-4.8,8.8-9.2c2.1-4.4,3.2-11.5,3.2-21.3c0-13-2.4-21.9-7.1-26.7
		c-4.8-4.8-12.7-7.2-23.7-7.2L64.1,311.5L64.1,311.5z"/>
</g>
</svg>
